svg/u1f370.svg

<svg viewBox="0 0 128 128" xmlns="http://www.w3.org/2000/svg">
  <path d="M97.9,105.05c0.39-0.59,11.26,2.12,11.26,2.12s5.84-0.94,7.81-3.5s1.55-6.96,0.96-8.73 c-0.59-1.77-2.33-3.06-2.33-3.06s0.79-13.76,0.2-26.35c-0.59-12.58-1.38-18.29-1.38-18.29s3.79-2.9,3.39-8.51s-5.15-7.12-7.69-7.13 c-3.57-0.01-6.17,2.4-6.17,2.4s0.48-7.5-6.25-9.53c-4.25-1.28-6.57,2.56-6.57,2.56s0.84-7.6-5.37-9.69c-4.92-1.65-7.29,2.8-7.29,2.8 l-18.7-5.81c0,0-3.77-3.41-7.17-0.6c-2.8,2.32-2.8,5.69-2.8,5.69s-9.29,8.73-18.34,19.94s-18.9,25.77-20.1,29.31 c-0.71,2.1-0.45,4.93-0.45,4.93s7.56,10.74,7.72,14.66c0.16,3.92,35.07,11.75,35.23,13.16C54.03,102.84,97.9,105.05,97.9,105.05z" fill="#FFCCC1"/>
  <path d="M14.35,112.73c0,0-0.65,3.35-0.54,6.06c0.11,2.71,0,4,1.73,4.76s34.3-3.35,53.67-6.6 c19.37-3.25,41.33-10.06,41.33-10.06s1.05-21.97,0.08-33.25c-1.08-12.51-2.49-14.71-6.82-16.76c-4.33-2.06-12.16,0.78-16.3,2.12 c-14,4.51-38.41,10.87-65.47,12.29c-8.89,0.47-11.13,0.36-11.13,0.36s-0.09,1.03,0.12,4.42c0.28,4.7,0.94,11.95,1.01,12.82 C12.13,90.4,14.35,112.73,14.35,112.73z" fill="#DF7C1A"/>
  <path d="M58.82,70.32c15.43-3.13,35.6-9.63,38.84-10.06c3.25-0.43,7.14-0.22,8.55,5.95 c1.41,6.17,1.41,23.8,1.3,26.83s-0.43,9.52-0.43,9.52s-12.55,5.95-42.85,10.71c-30.3,4.76-50.42,5.52-50.42,5.52L11,76.05 C11,76.05,33.72,75.4,58.82,70.32z" fill="#FEA32E"/>
  <path d="M39.02,88.61c14.23-2.01,30.95-5.19,46.74-9.85c8.8-2.59,21.18-7.47,21.18-7.47s0.2,2.38,0.37,4.97 s0.31,7.81,0.31,7.81s-16.77,7.9-46.31,13.2c-29.54,5.3-48.49,6.28-48.49,6.28l-0.79-11.94C12.02,91.61,22.9,90.88,39.02,88.61z" fill="#FFCCC1"/>
  <path d="M60.77,95.85c14.72-2.6,14.49-14.26,14.49-14.26s-10.17,2.44-15.14,3.44 c-4.1,0.82-14.48,2.57-14.48,2.57S49.39,97.86,60.77,95.85z" fill="#FE4F20"/>
  <path d="M107.62,84.06c0.11-0.65-2.01-9-13.74-6.49c-12.27,2.62-14.01,15.69-13.39,15.55 c0.74-0.18,7.85-2.05,14.62-4.25C102.6,86.42,107.62,84.06,107.62,84.06z" fill="#FE4F20"/>
  <path d="M13.71,103.5c0,0,2.38-11.09,14.97-11.84c14.5-0.87,15.93,8.34,15.93,8.34s-11.61,1.78-16.04,2.26 C21.41,103.05,13.71,103.5,13.71,103.5z" fill="#FE4F20"/>
  <path d="M18.55,64.78c-0.54,1.73,2.9,1.18,8.12,0.92c8.87-0.44,23.95-2.34,40.5-6.7 c26.29-6.92,39.14-11.73,39.14-12.6c0-0.87-19.37-13.85-29.54-16.99s-23.26-8.44-23.26-7.9c0,0.54-12.61,12.65-18.72,20.34 C28.53,49.76,19.29,62.46,18.55,64.78z" fill="#FFFFFF"/>
  <path d="M69.32,46.62c14.53-0.81,17.85-7.68,17.64-17.53c-0.21-9.43-8.55-25.86-18.18-25.54 c-8.98,0.3-17.2,14.39-18.5,24.67S53.74,47.49,69.32,46.62z" fill="#FF5117"/>
  <path d="M67.72,27.33c-0.61,0.11-2.24,3.37-2.13,5.29c0.12,2.01,1.09,3.16,2.92,2.98 c1.71-0.17,2.37-1.52,2.13-3.47S68.39,27.21,67.72,27.33z" fill="#FEFFFF"/>
  <path d="M78.42,30.91c-0.97-0.24-3.28,3.4-3.4,5.47c-0.09,1.58,0.97,2.68,2.55,2.68 c1.58,0,2.43-1.22,2.55-2.8S79.27,31.12,78.42,30.91z" fill="#FEFFFF"/>
  <path d="M57.14,30.43c-0.91,0.18-1.81,4.13-1.4,5.9c0.24,1.03,1.16,2.31,2.86,1.82 c1.7-0.49,1.95-2.86,1.4-4.07C59.45,32.86,58.22,30.21,57.14,30.43z" fill="#FEFFFF"/>
  <path d="M63.53,14.68c-0.82-0.21-3.28,2.19-3.83,4.5c-0.48,2.03,0.36,3.22,1.95,3.59 c1.58,0.36,2.92-0.61,3.16-2.37C65.03,18.74,64.5,14.92,63.53,14.68z" fill="#FEFFFF"/>
  <path d="M72.65,16.69c-0.73,0.3-1.28,4.44-0.55,6.2c0.78,1.89,2.54,1.94,3.59,1.46 c1.46-0.67,1.62-2.02,1.22-3.34C76.41,19.42,73.29,16.42,72.65,16.69z" fill="#FEFFFF"/>
</svg>

<svg viewBox="0 0 128 128" xmlns="http://www.w3.org/2000/svg">
  <defs/>
  <path d="M97.9,105.05 C98.29,104.46 109.16,107.17 109.16,107.17 C109.16,107.17 115,106.23 116.97,103.67 C118.94,101.11 118.52,96.71 117.93,94.94 C117.34,93.17 115.6,91.88 115.6,91.88 C115.6,91.88 116.39,78.12 115.8,65.53 C115.21,52.95 114.42,47.24 114.42,47.24 C114.42,47.24 118.21,44.34 117.81,38.73 C117.41,33.12 112.66,31.61 110.12,31.6 C106.55,31.59 103.95,34 103.95,34 C103.95,34 104.43,26.5 97.7,24.47 C93.45,23.19 91.13,27.03 91.13,27.03 C91.13,27.03 91.97,19.43 85.76,17.34 C80.84,15.69 78.47,20.14 78.47,20.14 L59.77,14.33 C59.77,14.33 56,10.92 52.6,13.73 C49.8,16.05 49.8,19.42 49.8,19.42 C49.8,19.42 40.51,28.15 31.46,39.36 C22.41,50.57 12.56,65.13 11.36,68.67 C10.65,70.77 10.91,73.6 10.91,73.6 C10.91,73.6 18.47,84.34 18.63,88.26 C18.79,92.18 53.7,100.01 53.86,101.42 C54.03,102.84 97.9,105.05 97.9,105.05 Z" fill="#FFCCC1"/>
  <path d="M14.35,112.73 C14.35,112.73 13.7,116.08 13.81,118.79 C13.92,121.5 13.81,122.79 15.54,123.55 C17.27,124.31 49.84,120.2 69.21,116.95 C88.58,113.7 110.54,106.89 110.54,106.89 C110.54,106.89 111.59,84.92 110.62,73.64 C109.54,61.13 108.13,58.93 103.8,56.88 C99.47,54.82 91.64,57.66 87.5,59 C73.5,63.51 49.09,69.87 22.03,71.29 C13.14,71.76 10.9,71.65 10.9,71.65 C10.9,71.65 10.81,72.68 11.02,76.07 C11.3,80.77 11.96,88.02 12.03,88.89 C12.13,90.4 14.35,112.73 14.35,112.73 Z" fill="#DF7C1A"/>
  <path d="M58.82,70.32 C74.25,67.19 94.42,60.69 97.66,60.26 C100.91,59.83 104.8,60.04 106.21,66.21 C107.62,72.38 107.62,90.01 107.51,93.04 C107.4,96.07 107.08,102.56 107.08,102.56 C107.08,102.56 94.53,108.51 64.23,113.27 C33.93,118.03 13.81,118.79 13.81,118.79 L11,76.05 C11,76.05 33.72,75.4 58.82,70.32 Z" fill="#FEA32E"/>
  <path d="M39.02,88.61 C53.25,86.6 69.97,83.42 85.76,78.76 C94.56,76.17 106.94,71.29 106.94,71.29 C106.94,71.29 107.14,73.67 107.31,76.26 C107.48,78.85 107.62,84.07 107.62,84.07 C107.62,84.07 90.85,91.97 61.31,97.27 C31.77,102.57 12.82,103.55 12.82,103.55 L12.03,91.61 C12.02,91.61 22.9,90.88 39.02,88.61 Z" fill="#FFCCC1"/>
  <path d="M60.77,95.85 C75.49,93.25 75.26,81.59 75.26,81.59 C75.26,81.59 65.09,84.03 60.12,85.03 C56.02,85.85 45.64,87.6 45.64,87.6 C45.64,87.6 49.39,97.86 60.77,95.85 Z" fill="#FE4F20"/>
  <path d="M107.62,84.06 C107.73,83.41 105.61,75.06 93.88,77.57 C81.61,80.19 79.87,93.26 80.49,93.12 C81.23,92.94 88.34,91.07 95.11,88.87 C102.6,86.42 107.62,84.06 107.62,84.06 Z" fill="#FE4F20"/>
  <path d="M13.71,103.5 C13.71,103.5 16.09,92.41 28.68,91.66 C43.18,90.79 44.61,100 44.61,100 C44.61,100 33,101.78 28.57,102.26 C21.41,103.05 13.71,103.5 13.71,103.5 Z" fill="#FE4F20"/>
  <path d="M18.55,64.78 C18.01,66.51 21.45,65.96 26.67,65.7 C35.54,65.26 50.62,63.36 67.17,59 C93.46,52.08 106.31,47.27 106.31,46.4 C106.31,45.53 86.94,32.55 76.77,29.41 C66.6,26.27 53.51,20.97 53.51,21.51 C53.51,22.05 40.9,34.16 34.79,41.85 C28.53,49.76 19.29,62.46 18.55,64.78 Z" fill="#FFFFFF"/>
  <path d="M69.32,46.62 C83.85,45.81 87.17,38.94 86.96,29.09 C86.75,19.66 78.41,3.23 68.78,3.55 C59.8,3.85 51.58,17.94 50.28,28.22 C48.98,38.5 53.74,47.49 69.32,46.62 Z" fill="#FF5117"/>
  <path d="M67.72,27.33 C67.11,27.44 65.48,30.7 65.59,32.62 C65.71,34.63 66.68,35.78 68.51,35.6 C70.22,35.43 70.88,34.08 70.64,32.13 C70.4,30.18 68.39,27.21 67.72,27.33 Z" fill="#FEFFFF"/>
  <path d="M78.42,30.91 C77.45,30.67 75.14,34.31 75.02,36.38 C74.93,37.96 75.99,39.06 77.57,39.06 C79.15,39.06 80,37.84 80.12,36.26 C80.24,34.68 79.27,31.12 78.42,30.91 Z" fill="#FEFFFF"/>
  <path d="M57.14,30.43 C56.23,30.61 55.33,34.56 55.74,36.33 C55.98,37.36 56.9,38.64 58.6,38.15 C60.3,37.66 60.55,35.29 60,34.08 C59.45,32.86 58.22,30.21 57.14,30.43 Z" fill="#FEFFFF"/>
  <path d="M63.53,14.68 C62.71,14.47 60.25,16.87 59.7,19.18 C59.22,21.21 60.06,22.4 61.65,22.77 C63.23,23.13 64.57,22.16 64.81,20.4 C65.03,18.74 64.5,14.92 63.53,14.68 Z" fill="#FEFFFF"/>
  <path d="M72.65,16.69 C71.92,16.99 71.37,21.13 72.1,22.89 C72.88,24.78 74.64,24.83 75.69,24.35 C77.15,23.68 77.31,22.33 76.91,21.01 C76.41,19.42 73.29,16.42 72.65,16.69 Z" fill="#FEFFFF"/>
</svg>
